Obsidian/actions/16s/format-break-node.svg

<svg xmlns="http://www.w3.org/2000/svg" width="16" height="16" viewBox="0 0 16 16">
 <defs>
  <style id="current-color-scheme" type="text/css">
   .ColorScheme-Text { color:#bebebe; } .ColorScheme-Highlight { color:#4285f4; }
  </style>
 </defs>
 <path style="fill:currentColor" class="ColorScheme-Text" d="M 5 1.0039062 L 5 3.0039062 L 1 3.0039062 L 1 4.0039062 L 5 4.0039062 L 5 6.0039062 L 11 6.0039062 L 11 4.0039062 L 15 4.0039062 L 15 3.0039062 L 11 3.0039062 L 11 1.0039062 L 5 1.0039062 z M 6 7.0039062 L 8 10.003906 L 10 7.0039062 L 6 7.0039062 z M 1 10.003906 L 1 15.003906 L 6 15.003906 L 6 13.003906 L 7 13.003906 L 7 12.003906 L 6 12.003906 L 6 10.003906 L 1 10.003906 z M 10 10.003906 L 10 12.003906 L 9 12.003906 L 9 13.003906 L 10 13.003906 L 10 15.003906 L 15 15.003906 L 15 10.003906 L 10 10.003906 z"/>
</svg>

<svg height="16" viewBox="0 0 16 16" width="16" xmlns="http://www.w3.org/2000/svg"><path d="m5 1.0039062v2h-4v1h4v2h6v-2h4v-1h-4v-2zm1 6 2 2.9999998 2-2.9999998zm-5 2.9999998v5h5v-2h1v-1h-1v-2zm9 0v2h-1v1h1v2h5v-5z" fill="#bebebe"/></svg>
